packages/synapse-interface/assets/icons/l2dao.svg

<svg fill="none" height="48" viewBox="0 0 48 48" width="48" xmlns="http://www.w3.org/2000/svg" xmlns:xlink="http://www.w3.org/1999/xlink"><linearGradient id="a"><stop offset=".005" stop-color="#142e77"/><stop offset=".518" stop-color="#1f7cb6"/><stop offset="1" stop-color="#3cedfc"/></linearGradient><linearGradient id="b" gradientUnits="userSpaceOnUse" x1="6" x2="28.556" xlink:href="#a" y1="16.223" y2="29.611"/><linearGradient id="c" gradientUnits="userSpaceOnUse" x1="6.231" x2="28.787" xlink:href="#a" y1="15.834" y2="29.222"/><linearGradient id="d" gradientUnits="userSpaceOnUse" x1="21.69" x2="18.288" y1="29.989" y2="28.115"><stop offset="0" stop-color="#0a207a"/><stop offset="1" stop-color="#2865c3" stop-opacity="0"/></linearGradient><linearGradient id="e" gradientUnits="userSpaceOnUse" x1="12.31" x2="18.614" xlink:href="#a" y1="8.784" y2="12.526"/><linearGradient id="f" gradientUnits="userSpaceOnUse" x1="15.312" x2="9.063" xlink:href="#a" y1="8.808" y2="12.517"/><linearGradient id="g" gradientUnits="userSpaceOnUse" x1="12.758" x2="16.75" xlink:href="#a" y1="11.992" y2="14.362"/><linearGradient id="h" gradientUnits="userSpaceOnUse" x1="14.899" x2="10.906" xlink:href="#a" y1="11.981" y2="14.35"/><rect fill="#0e0e34" height="46.5" rx="23.25" width="46.5" x=".75" y=".75"/><path d="m22.8176 26.5501c-.6198.3517-1.1834.7816-1.6828 1.2907-.691.7033-1.2361 1.5351-1.6256 2.4644-.2092.4967-.3613 1.0128-.4607 1.5456-.6901-.0097-1.3926-.1477-2.1083-.4176-.1864-.0695-.3728-.1486-.5609-.2365-.9363-.437-1.7856-1.0313-2.5479-1.7822-.7605-.749-1.3812-1.6335-1.8639-2.6507-.48-1.019-.72-2.1083-.72-3.268v-9.9111l2.576 1.5922 2.62-1.6177v9.9366c0 .4115.1046.8036.3156 1.179.2093.3728.4589.7016.7491.9768.2875.2778.5794.4941.8765.6559.2998.1618.5443.2426.7368.2426z" fill="url(#b)"/><path d="m25.5748 32.3396c-.2638.2664-.3948.5987-.3948.9908 0 .3728.131.6963.3948.9627.2611.2682.5776.4018.9434.4018h10.7358l-5.1978 5.3051h-5.538c-.8915 0-1.7373-.1759-2.5312-.5231-.7983-.3491-1.4929-.8247-2.0872-1.4331-.597-.6058-1.0647-1.3171-1.405-2.1294-.342-.8133-.5134-1.6731-.5134-2.584 0-.9293.1714-1.7997.5134-2.6121.3403-.8132.808-1.5236 1.405-2.1294.5943-.6057 1.288-1.084 2.0872-1.433.7939-.3473 1.6397-.5232 2.5312-.5232h4.7511c.3684 0 .6823-.1327.946-.4017.2612-.2664.3921-.5891.3921-.9628 0-.3921-.1309-.7253-.3921-.9908-.2637-.2682-.5776-.4018-.946-.4018h-12.0897v-5.305h12.0906c.8933 0 1.7373.1758 2.5338.5231.7966.349 1.4903.8273 2.0872 1.4331.5944.6084 1.0621 1.317 1.405 2.1294.3402.8132.5108 1.6827.5108 2.612 0 .91-.1715 1.7707-.5108 2.584-.342.8132-.8106 1.5236-1.405 2.1294-.5969.6084-1.2906 1.084-2.0872 1.4331-.7965.3473-1.6397.5231-2.5338.5231h-4.7512c-.3666 0-.6822.1336-.9442.4018z" fill="url(#c)"/><path d="m22.8176 26.5502c-.6198.3517-1.1834.7816-1.6828 1.2907-.691.7033-1.2361 1.5351-1.6256 2.4644-.2092.4967-.3613 1.0128-.4607 1.5456-.6901-.0097-1.3926-.1477-2.1083-.4176.3025-1.2881 1.0058-3.4421 2.511-4.8831z" fill="url(#d)"/><path d="m16.4567 12.6034-2.6526-1.2598v-3.26096-.08264z" fill="url(#e)"/><path d="m13.8235 8.01947v.08351 3.26002l-2.6235 1.2283z" fill="url(#f)"/><path d="m13.8235 11.2952v2.9145l2.6332-1.6062z" fill="url(#g)"/><path d="m13.8332 11.2831v2.9145l-2.6332-1.6063z" fill="url(#h)"/><rect height="46.5" rx="23.25" stroke="#3afcfd" stroke-width="1.5" width="46.5" x=".75" y=".75"/></svg>

<svg width="48" height="48" viewBox="0 0 48 48" fill="none" xmlns="http://www.w3.org/2000/svg">
<rect x="0.75" y="0.75" width="46.5" height="46.5" rx="23.25" fill="#0E0E34"/>
<path d="M22.8176 26.5501C22.1978 26.9018 21.6342 27.3317 21.1348 27.8408C20.4438 28.5441 19.8987 29.3759 19.5092 30.3052C19.3 30.8019 19.1479 31.318 19.0485 31.8508C18.3584 31.8411 17.6559 31.7031 16.9402 31.4332C16.7538 31.3637 16.5674 31.2846 16.3793 31.1967C15.443 30.7597 14.5937 30.1654 13.8314 29.4145C13.0709 28.6655 12.4502 27.781 11.9675 26.7638C11.4875 25.7448 11.2475 24.6555 11.2475 23.4958V13.5847L13.8235 15.1769L16.4435 13.5592V23.4958C16.4435 23.9073 16.5481 24.2994 16.7591 24.6748C16.9684 25.0476 17.218 25.3764 17.5082 25.6516C17.7957 25.9294 18.0876 26.1457 18.3847 26.3075C18.6845 26.4693 18.929 26.5501 19.1215 26.5501H22.8176Z" fill="url(#paint0_linear_1275_22749)"/>
<path d="M25.5748 32.3396C25.311 32.606 25.18 32.9383 25.18 33.3304C25.18 33.7032 25.311 34.0267 25.5748 34.2931C25.8359 34.5613 26.1524 34.6949 26.5182 34.6949H37.254L32.0562 40H26.5182C25.6267 40 24.7809 39.8241 23.987 39.4769C23.1887 39.1278 22.4941 38.6522 21.8998 38.0438C21.3028 37.438 20.8351 36.7267 20.4948 35.9144C20.1528 35.1011 19.9814 34.2413 19.9814 33.3304C19.9814 32.4011 20.1528 31.5307 20.4948 30.7183C20.8351 29.9051 21.3028 29.1947 21.8998 28.5889C22.4941 27.9832 23.1878 27.5049 23.987 27.1559C24.7809 26.8086 25.6267 26.6327 26.5182 26.6327H31.2693C31.6377 26.6327 31.9516 26.5 32.2153 26.231C32.4765 25.9646 32.6074 25.6419 32.6074 25.2682C32.6074 24.8761 32.4765 24.5429 32.2153 24.2774C31.9516 24.0092 31.6377 23.8756 31.2693 23.8756H19.1796V18.5706H31.2702C32.1635 18.5706 33.0075 18.7464 33.804 19.0937C34.6006 19.4427 35.2943 19.921 35.8912 20.5268C36.4856 21.1352 36.9533 21.8438 37.2962 22.6562C37.6364 23.4694 37.807 24.3389 37.807 25.2682C37.807 26.1782 37.6355 27.0389 37.2962 27.8522C36.9542 28.6654 36.4856 29.3758 35.8912 29.9816C35.2943 30.59 34.6006 31.0656 33.804 31.4147C33.0075 31.762 32.1643 31.9378 31.2702 31.9378H26.519C26.1524 31.9378 25.8368 32.0714 25.5748 32.3396Z" fill="url(#paint1_linear_1275_22749)"/>
<path d="M22.8176 26.5502C22.1978 26.9019 21.6342 27.3318 21.1348 27.8409C20.4438 28.5442 19.8987 29.376 19.5092 30.3053C19.3 30.802 19.1479 31.3181 19.0485 31.8509C18.3584 31.8412 17.6559 31.7032 16.9402 31.4333C17.2427 30.1452 17.946 27.9912 19.4512 26.5502H22.8176Z" fill="url(#paint2_linear_1275_22749)"/>
<path d="M16.4567 12.6034L13.8041 11.3436V8.08264V8L16.4567 12.6034Z" fill="url(#paint3_linear_1275_22749)"/>
<path d="M13.8235 8.01947V8.10298V11.363L11.2 12.5913L13.8235 8.01947Z" fill="url(#paint4_linear_1275_22749)"/>
<path d="M13.8235 11.2952V14.2097L16.4567 12.6035L13.8235 11.2952Z" fill="url(#paint5_linear_1275_22749)"/>
<path d="M13.8332 11.2831V14.1976L11.2 12.5913L13.8332 11.2831Z" fill="url(#paint6_linear_1275_22749)"/>
<rect x="0.75" y="0.75" width="46.5" height="46.5" rx="23.25" stroke="#3AFCFD" stroke-width="1.5"/>
<defs>
<linearGradient id="paint0_linear_1275_22749" x1="5.99989" y1="16.2231" x2="28.5557" y2="29.611" gradientUnits="userSpaceOnUse">
<stop offset="0.004587" stop-color="#142E77"/>
<stop offset="0.5183" stop-color="#1F7CB6"/>
<stop offset="1" stop-color="#3CEDFC"/>
</linearGradient>
<linearGradient id="paint1_linear_1275_22749" x1="6.23094" y1="15.8338" x2="28.7867" y2="29.2218" gradientUnits="userSpaceOnUse">
<stop offset="0.004587" stop-color="#142E77"/>
<stop offset="0.5183" stop-color="#1F7CB6"/>
<stop offset="1" stop-color="#3CEDFC"/>
</linearGradient>
<linearGradient id="paint2_linear_1275_22749" x1="21.6897" y1="29.9888" x2="18.2881" y2="28.1152" gradientUnits="userSpaceOnUse">
<stop offset="1e-05" stop-color="#0A207A"/>
<stop offset="1" stop-color="#2865C3" stop-opacity="0"/>
</linearGradient>
<linearGradient id="paint3_linear_1275_22749" x1="12.3097" y1="8.78429" x2="18.614" y2="12.5262" gradientUnits="userSpaceOnUse">
<stop offset="0.004587" stop-color="#142E77"/>
<stop offset="0.5183" stop-color="#1F7CB6"/>
<stop offset="1" stop-color="#3CEDFC"/>
</linearGradient>
<linearGradient id="paint4_linear_1275_22749" x1="15.3115" y1="8.8084" x2="9.06275" y2="12.5174" gradientUnits="userSpaceOnUse">
<stop offset="0.004587" stop-color="#142E77"/>
<stop offset="0.5183" stop-color="#1F7CB6"/>
<stop offset="1" stop-color="#3CEDFC"/>
</linearGradient>
<linearGradient id="paint5_linear_1275_22749" x1="12.758" y1="11.9924" x2="16.75" y2="14.3618" gradientUnits="userSpaceOnUse">
<stop offset="0.004587" stop-color="#142E77"/>
<stop offset="0.5183" stop-color="#1F7CB6"/>
<stop offset="1" stop-color="#3CEDFC"/>
</linearGradient>
<linearGradient id="paint6_linear_1275_22749" x1="14.8986" y1="11.9808" x2="10.9065" y2="14.3502" gradientUnits="userSpaceOnUse">
<stop offset="0.004587" stop-color="#142E77"/>
<stop offset="0.5183" stop-color="#1F7CB6"/>
<stop offset="1" stop-color="#3CEDFC"/>
</linearGradient>
</defs>
</svg>
